package/converter/svg/light/text.svg

<svg xmlns="http://www.w3.org/2000/svg" viewBox="0 0 448 512"><!--! Font Awesome Pro 6.6.0 by @fontawesome - https://fontawesome.com License - https://fontawesome.com/license (Commercial License) Copyright 2024 Fonticons, Inc. --><path d="M0 64C0 46.3 14.3 32 32 32l384 0c17.7 0 32 14.3 32 32l0 48c0 8.8-7.2 16-16 16s-16-7.2-16-16l0-48L240 64l0 384 64 0c8.8 0 16 7.2 16 16s-7.2 16-16 16l-160 0c-8.8 0-16-7.2-16-16s7.2-16 16-16l64 0 0-384L32 64l0 48c0 8.8-7.2 16-16 16s-16-7.2-16-16L0 64z"/></svg>

<svg xmlns="http://www.w3.org/2000/svg" viewBox="0 0 448 512"><!-- Font Awesome Pro 6.0.0-alpha2 by @fontawesome - https://fontawesome.com License - https://fontawesome.com/license (Commercial License) --><path d="M448 48V112C448 120.8 440.8 128 432 128L432 128C423.2 128 416 120.8 416 112V64H240V448H304C312.8 448 320 455.2 320 464V464C320 472.8 312.8 480 304 480H144C135.2 480 128 472.8 128 464V464C128 455.2 135.2 448 144 448H208V64H32V112C32 120.8 24.8 128 16 128H16C7.2 128 0 120.8 0 112V48C0 39.163 7.163 32 16 32H432C440.837 32 448 39.163 448 48Z"/></svg>
